svgs/light/handshake-angle.svg

<svg xmlns="http://www.w3.org/2000/svg" viewBox="0 0 640 512"><!--! Font Awesome Pro 6.0.0-alpha3 by @fontawesome - https://fontawesome.com License - https://fontawesome.com/license (Commercial License) --><path d="M473.5 176H384c-8.844 0-16 7.156-16 16s7.156 16 16 16h89.5C477.1 208 480 210.9 480 214.5v45C480 263.1 477.1 266 473.5 266H464c-8.844 0-16 7.156-16 16v45c0 16.53-11.61 29-27 29H416c-8.844 0-16 7.156-16 16c0 24.28-19.73 44.03-44 44.03L240 416c-2.781 0-5.516 .7187-7.938 2.094l-112 64C112.4 486.5 109.7 496.3 114.1 503.9C117.1 509.1 122.4 512 128 512c2.688 0 5.428-.6875 7.928-2.094L244.3 448L356 448c36.69 0 67.39-26.12 74.47-60.78C458.9 382.7 480 357.9 480 327V297.4c18.14-3.094 32-18.92 32-37.94v-45C512 193.3 494.7 176 473.5 176zM126 266.8c0-43.7 21.77-82.88 58.22-104.8c7.562-4.562 10.02-14.39 5.469-21.97C185.1 132.5 175.3 129.1 167.8 134.6C124.3 160.7 97.28 206.1 94.31 257.3L8.125 306.1c-7.703 4.375-10.41 14.12-6.047 21.81C5.016 333.1 10.44 336 16.02 336c2.672 0 5.375-.6562 7.859-2.062L126 276.1V266.8zM280 288c30.88 0 56-25.12 56-56V154c0-8.844-7.156-16-16-16s-16 7.156-16 16V232C304 245.2 293.2 256 280 256S256 245.2 256 232V118c0-4.812 2.438-9.203 6.531-11.75C290.1 89.09 321.9 80 354.4 80l61.6-.0034c.0039 0-.0039 0 0 0c.002 0-.002 0 0 0c.0137 0-.0137 0 0 0c2.703-.0098 5.166-.8599 7.394-2.049c.2617-.1387 .5625-.0742 .8203-.2285l80-48c7.578-4.547 10.03-14.38 5.484-21.95c-4.547-7.562-14.39-10.03-21.95-5.484L411.6 48h-57.15c-38.5 0-76.14 10.77-108.8 31.12C232.1 87.55 224 102.1 224 118V232C224 262.9 249.1 288 280 288zM637.5 183.5C632.9 176 622.1 173.8 615.5 178.5l-63.81 40.19c-7.469 4.703-9.719 14.58-5 22.06c3.031 4.828 8.234 7.469 13.55 7.469c2.906 0 5.859-.7969 8.516-2.469l63.81-40.19C640 200.8 642.3 190.1 637.5 183.5z"/></svg>

<svg xmlns="http://www.w3.org/2000/svg" viewBox="0 0 640 512"><!-- Font Awesome Pro 6.0.0-alpha2 by @fontawesome - https://fontawesome.com License - https://fontawesome.com/license (Commercial License) --><path d="M473.505 176H384.005C375.161 176 368.005 183.156 368.005 192S375.161 208 384.005 208H473.505C477.083 208 480.005 210.922 480.005 214.5V259.5C480.005 263.078 477.083 266 473.505 266H464.005C455.161 266 448.005 273.156 448.005 282V327C448.005 343.531 436.396 356 421.005 356H416.005C407.161 356 400.005 363.156 400.005 372C400.005 396.281 380.271 416.031 356.005 416.031L240.005 416C237.224 416 234.49 416.719 232.068 418.094L120.068 482.094C112.396 486.5 109.724 496.281 114.115 503.938C117.068 509.094 122.458 512 128.021 512C130.708 512 133.443 511.312 135.943 509.906L244.255 448L356.005 448.031C392.693 448.031 423.396 421.906 430.474 387.25C458.896 382.688 480.005 357.875 480.005 327V297.438C498.146 294.344 512.005 278.516 512.005 259.5V214.5C512.005 193.266 494.74 176 473.505 176ZM126.036 266.781C126.036 223.078 147.802 183.906 184.255 162C191.818 157.438 194.271 147.609 189.724 140.031C185.13 132.453 175.302 129.984 167.755 134.562C124.271 160.719 97.286 206.109 94.318 257.297L8.13 306.062C0.427 310.438 -2.276 320.187 2.083 327.875C5.021 333.094 10.443 336 16.021 336C18.693 336 21.396 335.344 23.88 333.938L126.036 276.109V266.781ZM280.005 288C310.88 288 336.005 262.875 336.005 232V154C336.005 145.156 328.849 138 320.005 138S304.005 145.156 304.005 154V232C304.005 245.234 293.24 256 280.005 256S256.005 245.234 256.005 232V118.047C256.005 113.234 258.443 108.844 262.536 106.297C290.13 89.094 321.911 80 354.427 80H416.005C416.009 80 416.009 79.998 416.013 79.998C416.015 79.998 416.019 80 416.021 80C416.034 80 416.048 79.988 416.062 79.988C418.765 79.979 421.191 79.137 423.419 77.947C423.681 77.809 423.982 77.873 424.24 77.719L504.24 29.719C511.818 25.172 514.271 15.344 509.724 7.766C505.177 0.203 495.333 -2.266 487.771 2.281L411.574 48H354.427C315.927 48 278.286 58.766 245.63 79.125C232.083 87.547 224.005 102.094 224.005 118.047V232C224.005 262.875 249.13 288 280.005 288ZM637.536 183.469C632.865 176 622.99 173.75 615.474 178.469L551.661 218.656C544.193 223.359 541.943 233.234 546.661 240.719C549.693 245.547 554.896 248.187 560.208 248.187C563.115 248.187 566.068 247.391 568.724 245.719L632.536 205.531C640.005 200.828 642.255 190.953 637.536 183.469Z"/></svg>
